X:1
T: McFadden's Own Reel
C:
R:Reel
Q: 232
K:D
M:4/4
L:1/8
((3FAF) ED EA, ((3A,G,A,)|DF Ac dB AG|F2 AF EA, A,A|((3Bcd) AG FD D2|
((3FAF) ED EA, ((3A,G,A,)|DF AF DF dB|AG FD EA, A,A|((3Bcd) AG FD D2|
|:dA FA dg fe|dA Fd BE ((3EDE) |dA FA dg fe|dA BG FD D2|
d2 dc dg fe|d2 cA BE ((3EFE) |dc Bc db af|dB AG FA dA:|
((3FAF) ED EA, ((3A,G,A,)|DF Ac dB AG|F2 AF EA, A,A|((3Bcd) AG FD D2|
((3FAF) ED EA, ((3A,G,A,)|DF AF DF dB|AG FD EA, A,A|((3Bcd) AG FD D2||
